X:1
T:Il Mondo è gli audici
T:Giovanni Marciani
T:Source : Ariette di Musica a 1 e 2 voci---Bracciano---Andrea Fei---1646. Editor : André Vierendeels (03/04/16).
T:Notes : Original clefs : C1, F4 Editorial accidentals above the staff Dotted brackets indicate black notes Note values have been halved in 6/4 measures Figures in BC are notated in original print Music collected by Florido de Silvestris 
T:Il Mondo è gli audici 
T:©
T:©
T:©
C:Giovanni Marciani
Z:©
%%score 1 2
L:1/8
Q:1/4=89
M:4/4
K:C
V:1 treble nm="Soprano" snm="S"
V:2 bass nm="BC" snm="BC"
V:1
 z2 z E A2 A2 | A2 A^G B2 B2 | z2 ^GG GGB x | E2 E2 AA/A/ AA | ^F2 F2 z A B2 | %5
w: Il Mon- do|è gli au- da- ci|di chi ten- ta'e pro-|cu- ra can- gia mio cor na-|tu- ra chia- ma|
w: Tu em- pi-|a e cru- de- le|u- na che mai pre-|ga- sti, u- na che mai o-|sa- sti di so-|
w: La Don- na'è|un i- dol va- no|che sol do- n'à chi|pre- ga, nul- la ri- cu- sa'o|nie- ga, non ha|
 G2 G2 z/ ^F/G/A/ B/A/G/F/ | ^F- E3 D2 de | c2 c2 z A/B/ e/d/f/e/ | c- B3 A4 :: z e c2 FE E2- | %10
w: spir- ti lo- * * * * * *|qua- * ci, chia- ma|spir- ti lo- * * * * *|qua- * ci,|mio cor ti- * mi-|
w: spir- ti fe- * * * * * *|de- * le, di so-|spir- ti fe- * * * * *|de- * le.|Se non par- * la-|
w: co- re in- * * hu- * * *|ma- * no, non ha|co- re in- * hu- * * *|ma- * no.|Se si fin- * ge|
 EE D2 E2 EB | ce A3 B A A/^G/ | A8 |:[M:6/4] z2 c3 c B2 B3 B | A2 A2 d2 ^G4 A2- | %15
w: * do e vi- le di|che pa- nen- * * * *|ti,|tut- to vuoi, tut- to|bra- mi e nul- la|
w: * sti ma- i po- co|nè _ _ _ _ mol- *|to,|non e sor- da co-|le- i, ma ben tu|
w: _ tal- hor in- e- so-|ra- * * * * * *|ta,|è per- che vuol di|nuo- vo es- ser pre-|
 A2 A3 ^G A2 c2 c2 | d2 d2 d2 e2 c2 e2- | e2 d3 c B2 A2 B2 | G4 B4 A3 G | F2 E2 ^F2 GF E4 | %20
w: _ ten- ti _ par- la|sco- pri l'ar- do- re non|_ và co- per- to _|no va nu- *|do'A- mo- * * * *|
w: _ stol- to, _ par- la|ho- mai ri- so- lu- to,|_ nac- que ben cie- co'A-|mor, ma non gia|mu- * * * * *|
w: * ga- ta, _ pre- ga,|sco- pri l'af- fet- to, è|_ ben A- mor bam- *|bin, ma par- la|schiet- * * * * *|
 D2 A2 A2 B2 B2 B2 | c2 A4 z6 | z2 G2 G2 A2 A2 A2 | B2 G2 B2 A4 c2- | c2 B3 A G2 ^F2 G2 | %25
w: re, par- la sco- pri l'ar-|do- re,|par- la sco- pri l'ar-|do- re non va, non|_ va co- per- * to|
w: to, par- la'ho- mai ri- so-|lu- to,|par- la ho- ma- i|ri- so- lu- to, nac|_ que ben cie- co'A- mor|
w: to, pre- ga, sco- pri l'af-|fet- to,|pre- ga, sco- pri l'af-|fet- * * to, è|_ ben A- mor bam- bin,|
 E4 e2 d2 ^c2 d2 | ed c3 B B2 d3 c | B2 e3 d c2 B2 c2 | dc B3 A A6 :| %29
w: non va nu- do'A- mo-|* * * * re, va _|_ nu- * * do'A- mo-|* * * * re.|
w: ma non gia mu- *|* * * * to, ma _|_ non _ _ gia mu-|* * * * to.|
w: ma par- la schiet- *|* * * * to, ma _|_ par- * * la schiet-|* * * * to.|
V:2
 A,,8- |"^#" A,,4 E,4- | E,8 | ^C,8 |"^#" D,8 | G,,8 |"^4 3""^#" A,,4 D,4 |"^#" A,,4 D,4 | %8
"^4 3" E,4 A,,4 ::"^6""^6" A,,4 A,3 G, |"^7 6""^#" F,4 E,4 |"^7 6" A,,4 B,,4 | A,,8 |: %13
[M:6/4] A,6 G,6 | F,6 E,4 C,2 |"^4 3" D,2 E,4 A,,4 A,2 | D,2 G,4 C,4 C,2- | %17
"^#""^#" C,2 D,4 G,2 D,4 | G,,6 A,,6 |"^4 3" B,,4 G,,4 A,,4 |"^#" D,6 B,,2 E,4 | %21
 A,,2 A,2 A,2 B,2 B,2 B,2 |"^#" C2 C,4 A,,2 D,4 |"^#" G,,6 D,4 A,,2- |"^4 3" A,,2 E,4 B,,6 | %25
 E,6 B,,4 E,2- |"^4 3" E,2 ^F,4 B,,2 B,3 A, | ^G,2 E,4 A,4 D,2- |"^4 3" D,2 E,4 A,,6 :| %29

